svg/emoji_u2712.svg

<?xml version="1.0" encoding="UTF-8"?>
<svg width="128" height="128" enable-background="new 0 0 128 128" xmlns="http://www.w3.org/2000/svg"><linearGradient id="c" x1="51.124" x2="51.124" y1="40" y2="122.01" gradientTransform="matrix(-1 0 0 1 128 0)" gradientUnits="userSpaceOnUse"><stop stop-color="#E0E0E0" offset="0"/><stop stop-color="#9E9E9E" offset=".9954"/></linearGradient><path d="m122.91 117.34c-10.79-20.66-2.59-34.22-23.46-48.16-20.34-13.59-41.95-37.35-44.28-39.43l-12.65 12.77-12.77 12.65c2.08 2.33 25.84 23.94 39.42 44.28 13.94 20.87 27.5 12.68 48.16 23.46 4.27 2.23 5.92 0.34 5.92 0.34s1.89-1.64-0.34-5.91z" fill="url(#c)"/><path d="m81.53 83.17 40.03 40.03c0.49 0.49 1.27 0.49 1.76 0s0.49-1.27 0-1.76l-40.05-40.04c2.03-2.9 1.75-6.92-0.85-9.52-2.91-2.91-7.64-2.91-10.54 0-2.92 2.92-2.92 7.64 0 10.54 2.63 2.64 6.73 2.88 9.65 0.75z" fill="#757575"/><g opacity=".2"><path d="m77.15 72.7c1.19 0 2.31 0.46 3.15 1.3 1.53 1.53 1.74 3.91 0.51 5.68l-0.43 0.62-0.62 0.45c-0.76 0.56-1.67 0.85-2.62 0.85-1.18 0-2.29-0.46-3.14-1.31-0.84-0.84-1.3-1.95-1.31-3.14 0-1.19 0.46-2.31 1.31-3.16 0.84-0.83 1.96-1.29 3.15-1.29m0-3c-1.91 0-3.81 0.73-5.26 2.18-2.92 2.92-2.92 7.64 0 10.54 1.45 1.46 3.35 2.18 5.25 2.18 1.54 0 3.09-0.48 4.39-1.43l40.03 40.03c0.24 0.24 0.56 0.36 0.88 0.36s0.64-0.12 0.88-0.36c0.49-0.49 0.49-1.27 0-1.76l-40.05-40.04c2.03-2.9 1.75-6.92-0.85-9.52-1.46-1.45-3.37-2.18-5.27-2.18z" fill="#424242"/></g><g opacity=".2"><path d="m55.18 34.01c0.2 0.21 0.42 0.43 0.64 0.65 6.8 6.99 24.86 25.57 41.97 37.01 11.98 8 13.46 15.35 15.51 25.52 1.26 6.27 2.7 13.37 6.96 21.54 0.6 1.16 0.73 1.89 0.74 2.28-0.36-0.01-1.1-0.13-2.27-0.75-8.17-4.26-15.27-5.7-21.54-6.96-10.17-2.05-17.52-3.53-25.52-15.51-11.43-17.12-30.01-35.18-37.01-41.98-0.22-0.22-0.44-0.43-0.65-0.64l10.65-10.54 10.52-10.62m-0.01-4.26-12.65 12.77-12.77 12.65c2.08 2.33 25.84 23.94 39.42 44.28 13.94 20.87 27.5 12.68 48.16 23.46 1.58 0.83 2.81 1.09 3.72 1.09 1.55 0 2.2-0.75 2.2-0.75s1.89-1.65-0.34-5.92c-10.79-20.66-2.59-34.22-23.46-48.16-20.34-13.58-41.95-37.34-44.28-39.42z" fill="#424242"/></g><linearGradient id="b" x1="48.398" x2="48.398" y1="45.575" y2="51.93" gradientTransform="matrix(-.7071 .7071 -.7071 -.7071 127.5 58.99)" gradientUnits="userSpaceOnUse"><stop stop-color="#FFC107" offset="0"/><stop stop-color="#FFA000" offset="1"/></linearGradient><path d="m41.3 72.84 31.61-31.61c1.94 1.94 1.94 5.09 0 7.03l-24.59 24.58c-1.94 1.94-5.08 1.94-7.02 0z" fill="url(#b)"/><linearGradient id="a" x1="89.545" x2="89.545" y1=".6667" y2="86.032" gradientTransform="matrix(-1 0 0 1 128 0)" gradientUnits="userSpaceOnUse"><stop stop-color="#616161" offset="0"/><stop stop-color="#212121" offset="1"/></linearGradient><path d="M64.43,35.24c-2.52-1.8-4.73-4.01-6.53-6.53l-4.39-6.14c-1.11-1.56-2.36-3.03-3.71-4.38 L37.88,6.27c-3.02-3.02-7.92-3.02-10.94,0L6.27,26.94c-3.02,3.02-3.02,7.92,0,10.94L18.18,49.8c1.36,1.36,2.82,2.6,4.38,3.71 l6.14,4.39c2.52,1.8,4.73,4.01,6.53,6.53l6.06,8.49L72.91,41.3L64.43,35.24z" fill="url(#a)"/><g opacity=".2"><path d="m32.41 7c1.26 0 2.45 0.49 3.35 1.39l11.92 11.91c1.24 1.24 2.38 2.58 3.39 4.01l4.39 6.14c2 2.8 4.43 5.23 7.23 7.23l5.6 4-26.61 26.61-4-5.6c-2-2.8-4.43-5.23-7.23-7.23l-6.14-4.39c-1.42-1.02-2.77-2.16-4.01-3.39l-11.91-11.92c-1.85-1.85-1.85-4.85 0-6.7l20.67-20.67c0.9-0.9 2.09-1.39 3.35-1.39m0-3c-1.98 0-3.96 0.75-5.47 2.27l-20.67 20.67c-3.02 3.02-3.02 7.92 0 10.94l11.91 11.92c1.36 1.36 2.82 2.6 4.38 3.71l6.14 4.39c2.52 1.8 4.73 4.01 6.53 6.53l6.06 8.49 31.62-31.62-8.48-6.06c-2.52-1.8-4.73-4.01-6.53-6.53l-4.39-6.14c-1.11-1.56-2.36-3.03-3.71-4.38l-11.92-11.92c-1.51-1.51-3.49-2.27-5.47-2.27z" fill="#eee"/></g></svg>

<svg width="128" height="128" style="enable-background:new 0 0 128 128;" xmlns="http://www.w3.org/2000/svg" xmlns:xlink="http://www.w3.org/1999/xlink">
  <linearGradient id="SVGID_1_" gradientTransform="matrix(-1 0 0 1 128 0)" gradientUnits="userSpaceOnUse" x1="51.1241" x2="51.1241" y1="40" y2="122.0108">
    <stop offset="0" style="stop-color:#E0E0E0"/>
    <stop offset="0.9954" style="stop-color:#9E9E9E"/>
  </linearGradient>
  <path d="M122.91,117.34c-10.79-20.66-2.59-34.22-23.46-48.16C79.11,55.59,57.5,31.83,55.17,29.75 L42.52,42.52L29.75,55.17c2.08,2.33,25.84,23.94,39.42,44.28c13.94,20.87,27.5,12.68,48.16,23.46c4.27,2.23,5.92,0.34,5.92,0.34 S125.14,121.61,122.91,117.34z" style="fill:url(#SVGID_1_);"/>
  <path d="M81.53,83.17l40.03,40.03c0.49,0.49,1.27,0.49,1.76,0c0.49-0.49,0.49-1.27,0-1.76L83.27,81.4 c2.03-2.9,1.75-6.92-0.85-9.52c-2.91-2.91-7.64-2.91-10.54,0c-2.92,2.92-2.92,7.64,0,10.54C74.51,85.06,78.61,85.3,81.53,83.17z" style="fill:#757575;"/>
  <g style="opacity:0.2;">
    <path d="M77.15,72.7c1.19,0,2.31,0.46,3.15,1.3c1.53,1.53,1.74,3.91,0.51,5.68l-0.43,0.62l-0.62,0.45 c-0.76,0.56-1.67,0.85-2.62,0.85c-1.18,0-2.29-0.46-3.14-1.31c-0.84-0.84-1.3-1.95-1.31-3.14c0-1.19,0.46-2.31,1.31-3.16 C74.84,73.16,75.96,72.7,77.15,72.7 M77.15,69.7c-1.91,0-3.81,0.73-5.26,2.18c-2.92,2.92-2.92,7.64,0,10.54 c1.45,1.46,3.35,2.18,5.25,2.18c1.54,0,3.09-0.48,4.39-1.43l40.03,40.03c0.24,0.24,0.56,0.36,0.88,0.36s0.64-0.12,0.88-0.36 c0.49-0.49,0.49-1.27,0-1.76L83.27,81.4c2.03-2.9,1.75-6.92-0.85-9.52C80.96,70.43,79.05,69.7,77.15,69.7L77.15,69.7z" style="fill:#424242;"/>
  </g>
  <g style="opacity:0.2;">
    <path d="M55.18,34.01c0.2,0.21,0.42,0.43,0.64,0.65c6.8,6.99,24.86,25.57,41.97,37.01 c11.98,8,13.46,15.35,15.51,25.52c1.26,6.27,2.7,13.37,6.96,21.54c0.6,1.16,0.73,1.89,0.74,2.28c-0.36-0.01-1.1-0.13-2.27-0.75 c-8.17-4.26-15.27-5.7-21.54-6.96c-10.17-2.05-17.52-3.53-25.52-15.51C60.24,80.67,41.66,62.61,34.66,55.81 c-0.22-0.22-0.44-0.43-0.65-0.64l10.65-10.54L55.18,34.01 M55.17,29.75L42.52,42.52L29.75,55.17c2.08,2.33,25.84,23.94,39.42,44.28 c13.94,20.87,27.5,12.68,48.16,23.46c1.58,0.83,2.81,1.09,3.72,1.09c1.55,0,2.2-0.75,2.2-0.75s1.89-1.65-0.34-5.92 c-10.79-20.66-2.59-34.22-23.46-48.16C79.11,55.59,57.5,31.83,55.17,29.75L55.17,29.75z" style="fill:#424242;"/>
  </g>
  <linearGradient id="SVGID_2_" gradientTransform="matrix(-0.7071 0.7071 -0.7071 -0.7071 127.5044 58.9905)" gradientUnits="userSpaceOnUse" x1="48.3978" x2="48.3978" y1="45.5753" y2="51.9298">
    <stop offset="0" style="stop-color:#FFC107"/>
    <stop offset="1" style="stop-color:#FFA000"/>
  </linearGradient>
  <path d="M41.3,72.84l31.61-31.61l0,0c1.94,1.94,1.94,5.09,0,7.03L48.32,72.84 C46.38,74.78,43.24,74.78,41.3,72.84L41.3,72.84z" style="fill:url(#SVGID_2_);"/>
  <linearGradient id="SVGID_3_" gradientTransform="matrix(-1 0 0 1 128 0)" gradientUnits="userSpaceOnUse" x1="89.5446" x2="89.5446" y1="0.6667" y2="86.0319">
    <stop offset="0" style="stop-color:#616161"/>
    <stop offset="1" style="stop-color:#212121"/>
  </linearGradient>
  <path d="M64.43,35.24c-2.52-1.8-4.73-4.01-6.53-6.53l-4.39-6.14c-1.11-1.56-2.36-3.03-3.71-4.38 L37.88,6.27c-3.02-3.02-7.92-3.02-10.94,0L6.27,26.94c-3.02,3.02-3.02,7.92,0,10.94L18.18,49.8c1.36,1.36,2.82,2.6,4.38,3.71 l6.14,4.39c2.52,1.8,4.73,4.01,6.53,6.53l6.06,8.49L72.91,41.3L64.43,35.24z" style="fill:url(#SVGID_3_);"/>
  <g style="opacity:0.2;">
    <path d="M32.41,7c1.26,0,2.45,0.49,3.35,1.39L47.68,20.3c1.24,1.24,2.38,2.58,3.39,4.01l4.39,6.14 c2,2.8,4.43,5.23,7.23,7.23l5.6,4L41.68,68.29l-4-5.6c-2-2.8-4.43-5.23-7.23-7.23l-6.14-4.39c-1.42-1.02-2.77-2.16-4.01-3.39 L8.39,35.76c-1.85-1.85-1.85-4.85,0-6.7L29.06,8.39C29.96,7.49,31.15,7,32.41,7 M32.41,4c-1.98,0-3.96,0.75-5.47,2.27L6.27,26.94 c-3.02,3.02-3.02,7.92,0,10.94L18.18,49.8c1.36,1.36,2.82,2.6,4.38,3.71l6.14,4.39c2.52,1.8,4.73,4.01,6.53,6.53l6.06,8.49 L72.91,41.3l-8.48-6.06c-2.52-1.8-4.73-4.01-6.53-6.53l-4.39-6.14c-1.11-1.56-2.36-3.03-3.71-4.38L37.88,6.27 C36.37,4.76,34.39,4,32.41,4L32.41,4z" style="fill:#EEEEEE;"/>
  </g>
</svg>
